ui/StatusQ/src/assets/img/icons/bigger/network.svg

<svg fill="none" height="24" viewBox="0 0 24 24" width="24" xmlns="http://www.w3.org/2000/svg"><path clip-rule="evenodd" d="m7.26285 18.4743c0 1.2574-1.0193 2.2767-2.27667 2.2767-1.25738 0-2.27668-1.0193-2.27668-2.2767s1.0193-2.2767 2.27668-2.2767c1.25737 0 2.27667 1.0193 2.27667 2.2767zm-2.27667 3.7767c1.829 0 3.35434-1.3002 3.7022-3.0267h6.62322c.3479 1.7265 1.8732 3.0267 3.7022 3.0267 2.0858 0 3.7767-1.6909 3.7767-3.7767s-1.6909-3.7767-3.7767-3.7767c-1.829 0-3.3543 1.3002-3.7022 3.0267h-6.62322c-.34786-1.7265-1.8732-3.0267-3.7022-3.0267-2.0858 0-3.77668 1.6909-3.77668 3.7767s1.69088 3.7767 3.77668 3.7767zm16.30432-3.7767c0 1.2574-1.0193 2.2767-2.2767 2.2767s-2.2767-1.0193-2.2767-2.2767 1.0193-2.2767 2.2767-2.2767 2.2767 1.0193 2.2767 2.2767zm-7.0138-12.9486c0 1.25737-1.0193 2.27667-2.2767 2.27667s-2.27668-1.0193-2.27668-2.27667c0-1.25738 1.01928-2.27668 2.27668-2.27668s2.2767 1.0193 2.2767 2.27668zm1.5 0c0 1.16383-.5265 2.20472-1.3542 2.8975l3.4874 6.4383c-.4891.1492-.936.395-1.3185.7152l-3.4874-6.43824c-.3492.10657-.7199.16391-1.104.16391s-.7548-.05733-1.104-.16391l-3.48738 6.43824c-.38255-.3202-.82945-.566-1.31849-.7152l3.48739-6.43829c-.82775-.69279-1.3542-1.73367-1.3542-2.89751 0-2.0858 1.69087-3.77668 3.77668-3.77668 2.0858 0 3.7767 1.69088 3.7767 3.77668z" fill="#939ba1" fill-rule="evenodd"/></svg>

<svg width="24" height="24" viewBox="0 0 24 24" fill="none" xmlns="http://www.w3.org/2000/svg">
<path fill-rule="evenodd" clip-rule="evenodd" d="M7.26285 18.4743C7.26285 19.7317 6.24355 20.751 4.98618 20.751C3.7288 20.751 2.7095 19.7317 2.7095 18.4743C2.7095 17.2169 3.7288 16.1976 4.98618 16.1976C6.24355 16.1976 7.26285 17.2169 7.26285 18.4743ZM4.98618 22.251C6.81518 22.251 8.34052 20.9508 8.68838 19.2243H15.3116C15.6595 20.9508 17.1848 22.251 19.0138 22.251C21.0996 22.251 22.7905 20.5601 22.7905 18.4743C22.7905 16.3885 21.0996 14.6976 19.0138 14.6976C17.1848 14.6976 15.6595 15.9978 15.3116 17.7243H8.68838C8.34052 15.9978 6.81518 14.6976 4.98618 14.6976C2.90038 14.6976 1.2095 16.3885 1.2095 18.4743C1.2095 20.5601 2.90038 22.251 4.98618 22.251ZM21.2905 18.4743C21.2905 19.7317 20.2712 20.751 19.0138 20.751C17.7564 20.751 16.7371 19.7317 16.7371 18.4743C16.7371 17.2169 17.7564 16.1976 19.0138 16.1976C20.2712 16.1976 21.2905 17.2169 21.2905 18.4743ZM14.2767 5.5257C14.2767 6.78307 13.2574 7.80237 12 7.80237C10.7426 7.80237 9.72332 6.78307 9.72332 5.5257C9.72332 4.26832 10.7426 3.24902 12 3.24902C13.2574 3.24902 14.2767 4.26832 14.2767 5.5257ZM15.7767 5.5257C15.7767 6.68953 15.2502 7.73042 14.4225 8.4232L17.9099 14.8615C17.4208 15.0107 16.9739 15.2565 16.5914 15.5767L13.104 9.13846C12.7548 9.24503 12.3841 9.30237 12 9.30237C11.6159 9.30237 11.2452 9.24504 10.896 9.13846L7.40862 15.5767C7.02607 15.2565 6.57917 15.0107 6.09013 14.8615L9.57752 8.42321C8.74977 7.73042 8.22332 6.68954 8.22332 5.5257C8.22332 3.4399 9.91419 1.74902 12 1.74902C14.0858 1.74902 15.7767 3.4399 15.7767 5.5257Z" fill="#939BA1"/>
</svg>
